public/assets/images/rec.svg

<svg height="480pt" viewBox="0 0 480 480" width="480pt" xmlns="http://www.w3.org/2000/svg"><path d="m432 240c0 106.039062-85.960938 192-192 192s-192-85.960938-192-192 85.960938-192 192-192 192 85.960938 192 192zm0 0" fill="#cfd2fc"/><path d="m240 480c-132.546875 0-240-107.453125-240-240s107.453125-240 240-240 240 107.453125 240 240c-.148438 132.484375-107.515625 239.851562-240 240zm0-464c-123.710938 0-224 100.289062-224 224s100.289062 224 224 224 224-100.289062 224-224c-.140625-123.652344-100.347656-223.859375-224-224zm0 0" fill="#8690fa"/><path d="m352 240c0 61.855469-50.144531 112-112 112s-112-50.144531-112-112 50.144531-112 112-112 112 50.144531 112 112zm0 0" fill="#5153ff"/></svg>

<?xml version="1.0" encoding="utf-8"?>
<!-- Generator: Adobe Illustrator 24.2.0, SVG Export Plug-In . SVG Version: 6.00 Build 0)  -->
<svg version="1.1" baseProfile="tiny" id="Layer_1" xmlns="http://www.w3.org/2000/svg" xmlns:xlink="http://www.w3.org/1999/xlink"
	 x="0px" y="0px" viewBox="0 0 480 480" overflow="visible" xml:space="preserve">
<path fill="#E6DEFF" d="M432,240c0,106-86,192-192,192S48,346,48,240S134,48,240,48S432,134,432,240z"/>
<path fill="#8690FA" d="M240,480C107.5,480,0,372.5,0,240S107.5,0,240,0s240,107.5,240,240C479.9,372.5,372.5,479.9,240,480z
	 M240,16C116.3,16,16,116.3,16,240s100.3,224,224,224s224-100.3,224-224C463.9,116.3,363.7,16.1,240,16z"/>
<path fill="#5153FF" d="M352,240c0,61.9-50.1,112-112,112s-112-50.1-112-112s50.1-112,112-112S352,178.1,352,240z"/>
</svg>
